icons/evolvere-blue-folders-flat-vivid-dark-fallback/actions/64/call-stop.svg

<?xml version="1.0" encoding="UTF-8" standalone="no"?>
<!-- Created with Inkscape (http://www.inkscape.org/) -->

<svg
   xmlns:dc="http://purl.org/dc/elements/1.1/"
   xmlns:cc="http://creativecommons.org/ns#"
   xmlns:rdf="http://www.w3.org/1999/02/22-rdf-syntax-ns#"
   xmlns:svg="http://www.w3.org/2000/svg"
   xmlns="http://www.w3.org/2000/svg"
   xmlns:sodipodi="http://sodipodi.sourceforge.net/DTD/sodipodi-0.dtd"
   xmlns:inkscape="http://www.inkscape.org/namespaces/inkscape"
   width="64"
   height="64"
   id="svg13094"
   version="1.1"
   inkscape:version="0.91+devel r"
   sodipodi:docname="call-stop.svg">
  <sodipodi:namedview
     id="base"
     pagecolor="#ffffff"
     bordercolor="#666666"
     borderopacity="1.0"
     inkscape:pageopacity="0"
     inkscape:pageshadow="2"
     inkscape:zoom="11.313709"
     inkscape:cx="33.151676"
     inkscape:cy="31.857839"
     inkscape:document-units="px"
     inkscape:current-layer="svg13094"
     showgrid="true"
     inkscape:snap-bbox="true"
     inkscape:bbox-paths="true"
     inkscape:bbox-nodes="true"
     inkscape:snap-bbox-edge-midpoints="true"
     inkscape:snap-bbox-midpoints="true"
     inkscape:object-paths="true"
     inkscape:snap-intersection-paths="true"
     inkscape:object-nodes="true"
     inkscape:snap-smooth-nodes="true"
     inkscape:snap-midpoints="true"
     inkscape:snap-object-midpoints="true"
     inkscape:snap-center="true"
     showguides="true"
     inkscape:guide-bbox="true"
     inkscape:window-width="1920"
     inkscape:window-height="1023"
     inkscape:window-x="-10"
     inkscape:window-y="35"
     inkscape:window-maximized="1"
     inkscape:snap-global="true"
     fit-margin-top="0"
     fit-margin-left="0"
     fit-margin-right="0"
     fit-margin-bottom="0"
     showborder="true"
     inkscape:showpageshadow="false"
     inkscape:snap-page="true">
    <inkscape:grid
       type="xygrid"
       id="grid3075"
       empspacing="5"
       visible="true"
       enabled="true"
       snapvisiblegridlinesonly="true"
       originx="1.6362304e-08px"
       originy="18px" />
  </sodipodi:namedview>
  <defs
     id="defs13096" />
  <metadata
     id="metadata13099">
    <rdf:RDF>
      <cc:Work
         rdf:about="">
        <dc:format>image/svg+xml</dc:format>
        <dc:type
           rdf:resource="http://purl.org/dc/dcmitype/StillImage" />
        <dc:title></dc:title>
      </cc:Work>
    </rdf:RDF>
  </metadata>
  <path
     inkscape:connector-curvature="0"
     style="color:#000000;fill:#c13434;fill-opacity:1;fill-rule:nonzero;stroke:none;stroke-width:2.28571415;marker:none;visibility:visible;display:inline;overflow:visible;enable-background:accumulate"
     d="m 0,4 0,30 0,28 2,2 30,0 30,0 2,-2 L 64,34 64,4 32,4 0,4 z"
     id="path6498" />
  <path
     inkscape:connector-curvature="0"
     style="color:#000000;fill:#ff5858;fill-opacity:1;fill-rule:nonzero;stroke:none;marker:none;visibility:visible;display:inline;overflow:visible;enable-background:accumulate"
     d="M 2,0 0,1 0,4 32,4 64,4 64,1 62,0 32,0 2,0 z"
     id="path6502" />
  <path
     inkscape:connector-curvature="0"
     style="fill:#ff8888;fill-opacity:1;fill-rule:nonzero"
     d="M 0,3 0,6 2,4 Z"
     id="path4298"
     sodipodi:nodetypes="cccc" />
  <path
     d="M 64,6 62,4 64,3 z"
     id="path3028"
     style="fill:#e14747;fill-opacity:1"
     inkscape:connector-curvature="0" />
  <g
     id="g3043"
     inkscape:export-filename="folder.png"
     inkscape:export-xdpi="90"
     inkscape:export-ydpi="90"
     transform="translate(-0.62500009,0.082283)" />
  <g
     id="scalable"
     transform="matrix(1.0385892,0,0,1.0385892,1214.7222,1878.8121)"
     inkscape:label="#g3701"
     style="fill:#ffffff" />
  <path
     inkscape:connector-curvature="0"
     id="path3066"
     d="m 52.263326,42.155787 1.363817,-2.927827 c 0.03577,-0.08226 0.06031,-0.165362 0.06132,-0.250348 0.0088,-0.251728 -0.126542,-0.495471 -0.3702,-0.608413 l -9.703885,-4.500205 c -0.324545,-0.150691 -0.703313,-0.0012 -0.8537,0.323645 l -1.363783,2.927767 c -0.150996,0.324473 -0.0011,0.703197 0.32365,0.85369 l 9.693949,4.494468 c 0.324457,0.15064 0.697166,0.01123 0.847689,-0.313437 z m 1.59868,-4.466078 c 0.406841,-0.82649 0.683053,-1.811848 0.6822,-2.831383 -5.17e-4,-0.865611 -0.196108,-1.752293 -0.674198,-2.580289 -1.959375,-3.393778 -10.523435,-9.254274 -21.87445,-9.254224 -11.350985,-4e-6 -19.90679,5.864485 -21.866205,9.258291 -1.0410907,1.80302 -0.7450297,3.877776 0.008,5.407268 0.05953,-0.04017 0.119437,-0.07897 0.186231,-0.110196 L 19.96366,33.115314 C 19.832207,30.963754 24.176326,26.99996 31.999784,27 c 7.823282,-6e-5 12.166908,3.967136 12.035672,6.11871 l 9.642792,4.464919 c 0.06685,0.0304 0.12516,0.06522 0.183737,0.10608 z m -31.291961,0.03314 c 0.06195,-0.107306 0.09001,-0.233035 0.085,-0.359179 l 0.0097,0.0056 c -0.003,-0.08413 -0.02123,-0.170521 -0.05887,-0.251706 l -1.371363,-2.928398 c -0.150476,-0.324685 -0.527489,-0.465507 -0.852188,-0.315049 l -9.700237,4.497207 c -0.324703,0.150467 -0.455569,0.533462 -0.305093,0.858147 l 1.350973,2.916555 c 0.150569,0.324728 0.537796,0.471611 0.862448,0.321032 L 22.284852,37.9801 c 0.121721,-0.05653 0.220602,-0.151457 0.284758,-0.257503 z"
     style="color:#000000;fill:#ffffff;fill-opacity:0.86583185;fill-rule:nonzero;stroke:none;stroke-width:1.20000005;marker:none;visibility:visible;display:inline;overflow:visible;enable-background:accumulate"
     inkscape:export-filename="../imagens/simbolo-telefone-rodape.png"
     inkscape:export-xdpi="90"
     inkscape:export-ydpi="90"
     sodipodi:nodetypes="ccccccccccccccsccccccccccccccccccccc" />
  <path
     style="color:#000000;fill:#481000;fill-opacity:0.1842576;fill-rule:nonzero;stroke:none;stroke-width:1;marker:none;visibility:visible;display:inline;overflow:visible;enable-background:accumulate;opacity:1;stroke-linecap:butt;stroke-linejoin:miter;stroke-miterlimit:4;stroke-dasharray:none;stroke-dashoffset:0;stroke-opacity:1"
     d="M 32 27 C 24.176542 26.99996 19.837297 30.97344 19.96875 33.125 L 10.6875 37.4375 C 10.761521 37.71355 10.833277 37.994101 10.9375 38.25 L 20.375 33.875 C 20.582308 33.778938 20.822616 33.792797 21 33.90625 C 21.144037 31.717523 25.422266 27.999961 33 28 C 37.809053 27.999963 41.301821 29.501328 43.25 31.15625 C 41.672882 29.155859 37.785248 26.999956 32 27 z M 52.9375 31.03125 C 53.329472 31.472169 53.65058 31.892538 53.875 32.28125 C 54.35309 33.109246 54.530733 33.978139 54.53125 34.84375 C 54.532103 35.863285 54.281841 36.86101 53.875 37.6875 C 53.816423 37.64664 53.75435 37.62415 53.6875 37.59375 L 44.96875 33.5625 C 45.015262 33.7554 45.041774 33.952468 45.03125 34.125 L 54.6875 38.59375 C 54.75435 38.62415 54.816423 38.64664 54.875 38.6875 C 55.281841 37.86101 55.532103 36.863285 55.53125 35.84375 C 55.530733 34.978139 55.35309 34.109246 54.875 33.28125 C 54.486367 32.608109 53.816013 31.833499 52.9375 31.03125 z M 21.625 34.8125 C 21.593128 34.813602 21.563196 34.837722 21.53125 34.84375 L 22.59375 37.125 C 22.63139 37.206185 22.65325 37.29087 22.65625 37.375 C 22.66126 37.501144 22.62445 37.611444 22.5625 37.71875 C 22.498344 37.824796 22.402971 37.91222 22.28125 37.96875 L 12.59375 42.46875 C 12.54362 42.492001 12.489512 42.490493 12.4375 42.5 L 12.71875 43.15625 C 12.869319 43.480978 13.269098 43.619329 13.59375 43.46875 L 23.28125 38.96875 C 23.402971 38.91222 23.498344 38.824796 23.5625 38.71875 C 23.62445 38.611444 23.66126 38.501144 23.65625 38.375 C 23.65325 38.29087 23.63139 38.206185 23.59375 38.125 L 22.25 35.1875 C 22.137143 34.943986 21.875071 34.803851 21.625 34.8125 z M 42.375 38.28125 C 42.323353 38.564092 42.444145 38.841495 42.71875 38.96875 L 52.40625 43.46875 C 52.730707 43.61939 53.099477 43.480917 53.25 43.15625 L 54.625 40.21875 C 54.66077 40.13649 54.68649 40.053736 54.6875 39.96875 C 54.6963 39.717022 54.556158 39.487942 54.3125 39.375 L 53.65625 39.0625 C 53.645623 39.114196 53.647093 39.167942 53.625 39.21875 L 52.25 42.15625 C 52.099477 42.480917 51.730707 42.61939 51.40625 42.46875 L 42.375 38.28125 z "
     id="path3044" />
</svg>

<svg xmlns="http://www.w3.org/2000/svg" viewBox="0 0 64 64"><g color="#000"><path d="m0 4v30 28l2 2h30 30l2-2v-28-30h-32-32" fill="#c13434"/><path d="m2 0l-2 1v3h32 32v-3l-2-1h-30-30" fill="#ff5858"/></g><path d="m0 3v3l2-2" fill="#f88"/><path d="m64 6l-2-2 2-1z" fill="#e14747"/><g color="#000"><path d="m52.26 42.16l1.364-2.928c.036-.082.06-.165.061-.25.009-.252-.127-.495-.37-.608l-9.704-4.5c-.325-.151-.703-.001-.854.324l-1.364 2.928c-.151.324-.001.703.324.854l9.694 4.494c.324.151.697.011.848-.313zm1.599-4.466c.407-.826.683-1.812.682-2.831-.001-.866-.196-1.752-.674-2.58-1.959-3.394-10.523-9.254-21.874-9.254-11.351 0-19.907 5.864-21.866 9.258-1.041 1.803-.745 3.878.008 5.407.06-.04.119-.079.186-.11l9.64-4.464c-.131-2.152 4.213-6.115 12.04-6.115 7.823 0 12.167 3.967 12.04 6.119l9.643 4.465c.067.03.125.065.184.106m-31.29.033c.062-.107.09-.233.085-.359l.01.006c-.003-.084-.021-.171-.059-.252l-1.371-2.928c-.15-.325-.527-.466-.852-.315l-9.7 4.497c-.325.15-.456.533-.305.858l1.351 2.917c.151.325.538.472.862.321l9.694-4.487c.122-.057.221-.151.285-.258" fill="#fff" fill-opacity=".866"/><path d="m32 27c-7.823 0-12.163 3.973-12.03 6.125l-9.281 4.313c.074.276.146.557.25.813l9.438-4.375c.207-.096.448-.082.625.031.144-2.189 4.422-5.906 12-5.906 4.809 0 8.302 1.501 10.25 3.156-1.577-2-5.465-4.156-11.25-4.156m20.938 4.03c.392.441.713.861.938 1.25.478.828.656 1.697.656 2.563.001 1.02-.249 2.02-.656 2.844-.059-.041-.121-.063-.188-.094l-8.719-4.03c.047.193.073.39.063.563l9.656 4.469c.067.03.129.053.188.094.407-.826.657-1.824.656-2.844-.001-.866-.178-1.735-.656-2.563-.389-.673-1.059-1.448-1.938-2.25m-31.31 3.781c-.032.001-.062.025-.094.031l1.063 2.281c.038.081.059.166.063.25.005.126-.032.236-.094.344-.064.106-.16.193-.281.25l-9.688 4.5c-.05.023-.104.022-.156.031l.281.656c.151.325.55.463.875.313l9.688-4.5c.122-.057.217-.144.281-.25.062-.107.099-.218.094-.344-.003-.084-.025-.169-.063-.25l-1.344-2.938c-.113-.244-.375-.384-.625-.375m20.75 3.469c-.052.283.069.56.344.688l9.688 4.5c.324.151.693.012.844-.313l1.375-2.938c.036-.082.061-.165.063-.25.009-.252-.131-.481-.375-.594l-.656-.313c-.011.052-.009.105-.031.156l-1.375 2.938c-.151.325-.519.463-.844.313l-9.03-4.188" fill-opacity=".184" fill="#481000"/></g></svg>
